newicons/emoji_bus_stop.svg

<?xml version="1.0" encoding="UTF-8" standalone="no"?>
<svg
   version="1.2"
   viewBox="0 0 48 48"
   id="svg7"
   xmlns="http://www.w3.org/2000/svg"
   xmlns:svg="http://www.w3.org/2000/svg">
  <defs
     id="defs1" />
  <path
     d="M 31.32901,25.471919 H 16.67099 c -0.632306,0 -1.149648,-0.519501 -1.149648,-1.154447 V 9.5405616 c 0,-0.6349454 0.517342,-1.1544462 1.149648,-1.1544462 h 14.65802 c 0.632307,0 1.149648,0.5195008 1.149648,1.1544462 V 24.317472 c 0,0.634946 -0.517341,1.154447 -1.149648,1.154447"
     fill="none"
     stroke="#ffffff"
     stroke-linecap="round"
     stroke-linejoin="round"
     stroke-width="0.864034"
     id="path1"
     style="stroke-width:1;stroke-dasharray:none" />
  <path
     d="M 22.82161,8.1552262 V 5.5 h 2.299298 v 2.6552262"
     fill="none"
     stroke="#ffffff"
     stroke-linecap="round"
     stroke-linejoin="round"
     stroke-width="0.864034"
     id="path2"
     style="stroke-width:1;stroke-dasharray:none" />
  <path
     d="M 25.120908,25.76053 V 42.5 H 22.82161 V 25.702808"
     fill="none"
     stroke="#ffffff"
     stroke-linecap="round"
     stroke-linejoin="round"
     stroke-width="0.864034"
     id="path3"
     style="stroke-width:1;stroke-dasharray:none" />
  <path
     d="m 22.016856,13.638846 v 6.291731"
     fill="none"
     stroke="#ffffff"
     stroke-linecap="round"
     stroke-linejoin="round"
     stroke-width="0.864034"
     id="path4"
     style="stroke-width:1;stroke-dasharray:none" />
  <path
     d="m 25.638249,13.638846 v 6.291731"
     fill="none"
     stroke="#ffffff"
     stroke-linecap="round"
     stroke-linejoin="round"
     stroke-width="0.864034"
     id="path5"
     style="stroke-width:1;stroke-dasharray:none" />
  <path
     d="M 25.638249,16.75585 H 22.016856"
     fill="none"
     stroke="#ffffff"
     stroke-linecap="round"
     stroke-linejoin="round"
     stroke-width="0.864034"
     id="path6"
     style="stroke-width:1;stroke-dasharray:none" />
  <path
     d="m 18.223016,16.871295 a 5.7482431,5.7722309 0 1 0 11.496486,0 5.7482431,5.7722309 0 1 0 -11.496486,0"
     fill="none"
     stroke="#ffffff"
     stroke-linecap="round"
     stroke-linejoin="round"
     stroke-width="0.864034"
     id="path7"
     style="stroke-width:1;stroke-dasharray:none" />
</svg>

<?xml version="1.0" encoding="UTF-8"?><svg id="b" xmlns="http://www.w3.org/2000/svg" viewBox="0 0 48 48"><defs><style>.j{fill:none;stroke:#fff;stroke-linecap:round;stroke-linejoin:round;}</style></defs><path id="c" class="j" d="m31.329,25.4719h-14.658c-.6323,0-1.1496-.5195-1.1496-1.1544v-14.7769c0-.6349.5173-1.1544,1.1496-1.1544h14.658c.6323,0,1.1496.5195,1.1496,1.1544v14.7769c0,.6349-.5173,1.1544-1.1496,1.1544"/><path id="d" class="j" d="m22.8216,8.1552v-2.6552h2.2993v2.6552"/><path id="e" class="j" d="m25.1209,25.7605v16.7395h-2.2993v-16.7972"/><path id="f" class="j" d="m22.0169,13.6388v6.2917"/><path id="g" class="j" d="m25.6382,13.6388v6.2917"/><path id="h" class="j" d="m25.6382,16.7558h-3.6214"/><path id="i" class="j" d="m18.223,16.8713c-.0018,3.1879,2.5703,5.7737,5.745,5.7755,3.1747.0018,5.7497-2.581,5.7515-5.7689,0-.0022,0-.0044,0-.0066,0-3.1879-2.5736-5.7722-5.7482-5.7722s-5.7482,2.5843-5.7482,5.7722"/></svg>
